X:1
T:Wash me throughly - Handel
T:#
%%score [ 1 2 3 ] { ( 4 5 ) | 6 }
L:1/8
Q:1/4=120
M:3/4
K:D
V:1 treble nm="Alto" snm="A"
V:2 treble nm="Tenor" snm="T"
V:3 treble nm="Bass" snm="B"
V:4 treble nm="Accomp."
V:5 treble 
V:6 bass 
V:1
"^Psalm 51:2""^Wash me throughly""^arranged for ATB by James Gibb""^George Frederick Handel \n(1685-1759)" z6 x2 | %1
w: |
 z6 | z6 x2 | z2 F2 (E/F/G) x2 | (F3 E) D2 | E2 C4 | D3 E F2 | G2 E4 | F3 G AB x2 | G2 F4 x2 | %10
w: ||Wash me * *|through­ * ly|from my|wi- cked- ness,|from my|wi- cked- ness and|cleanse me,|
 (B2 c2) d2 | F2 ^G4 | (A6- | A3 G F2) x2 | G2 (F2 E2) | D6 | z6 | z6 | z6 | z6 | z2 D3 E | %21
w: cleanse * me|from my|sin||from my *|sin,|||||wash me|
 (C>B,) A,4 | z6 | z2 F2 G2 | (F3 E) D2 x2 | E2 (D2 C2) | D3 E F2 | G2 E4 x2 | F3 G AF x2 | %29
w: through­ * ly,||wash me|through­ * ly|from my *|wi- cked- ness,|from my|wi- cked- ness and|
 (B2 A2) ^G2 | A6 x2 | z2 c2 d2 | (c3 B) A2 | B2 ^G4 | c3 B A^G x2 | AB A2 ^G2 | A6 x2 | z6 | %38
w: from * my|sin,|wash me|through­ * ly|from my|wi- cked- ness and|cleanse me from my|sin,||
 z6 x2 | z6 | z2 c2 d2 | (^A3 ^G) F2 | z2 c2 d2 | (^A3 ^G) F2 | z2 B2 c2 | (^G3 F) E2 | z2 B2 c2 | %47
w: ||Wash me|through­ * ly,|wash me|through­ * ly|wash me|through­ * ly,|wash me|
 (^E3 ^D) C2 | z6 | z2 A2 (^G/A/B) | (A3 ^G) F2 x2 | ^G2 ^E4 x2 | c3 B A2 | B2 ^G4 x2 | %54
w: through­ * ly,||wash me * *|through­ * ly|from my|wi- cked- ness,|from my|
 A3 ^G F^E x2 | F^G ^E3 F | F6 x2 | z6 x2 | z6 x2 | z6 | z6 | z2 B2 A2 | (G3 F) E2 x2 | z6 | %64
w: wi- cked- ness and|cleanse me from my|sin,|||||wash me|through­ * ly,||
 z2 A2 G2 | (F3 E) D2 x2 | z6 x2 | z2 c2 d2 x2 | (c3 B) A2 x2 | z2 c2 d2 | (c3 B) A2 x2 | %71
w: wash me|through­ * ly,||wash me|through­ * ly,|wash me|through­ * ly,|
 z2 E2 F2 | (G3 F) E2 x2 | F2 ^G4 | A3 =G F2 | G2 E4 x2 |"^rall." F3 E DC x2 | DE (DC/D/ C)D | %78
w: wash me|through­ * ly|from my|wi- cked- ness,|from my|wi- cked- ness and|cleanse me from * * * my|
 D6- | D6 | z6 x2 | z6 | z6 | z6 | z6 | z6 | z6 | z6 x2 |] %88
w: sin.||||||||||
V:2
 z6 x2 | z6 | z6 x2 | z6 x2 | z6 | z6 | z6 | z6 | z6 x2 | z6 x2 | z6 | z6 | z2 F,2 (E,/F,/G,) | %13
w: ||||||||||||Wash me * *|
 (F,3 E,) D,2 x2 | E,2 C,4 | D,3 E, F,2 | G,2 E,4 | F,3 G, A,B, | G,2 F,4 | (B,2 C2) D2 | %20
w: through­ * ly|from my|wi- cked- ness,|from my|wi- cked- ness and|cleanse me,|cleanse * me|
 F,2 ^G,4 | (A,6- | A,3 G, F,2) | G,2 (F,2 E,2) | D,6 x2 | z2 F,2 G,2 | (F,3 E,) D,2 | E,2 C,4 x2 | %28
w: from my|sin,||from my *|sin,|wash me|through­ * ly|from my|
 D,3 E, F,2 x2 | z2 C2 D2 | (C3 B,) A,2 x2 | B,2 (A,2 ^G,2) | A,3 B, C2 | D2 B,4 | E3 D CB, x2 | %35
w: wi- cked- ness,|wash me|through­ * ly|from my *|wi- cked- ness,|from my|wi- cked- ness and|
 CD C2 B,2 | A,6 x2 | z6 | z6 x2 | z6 | z6 | z2 C2 D2 | (^A,3 ^G,) F,2 | z2 C2 D2 | (^G,3 F,) E,2 | %45
w: cleanse me from my|sin,|||||wash me|through­ * ly,|wash me|through­ * ly,|
 z2 B,2 C2 | (^G,3 F,) E,2 | z2 ^G,2 A,2 | (^E,3 ^D,) C,2 | z2 C2 (B,/C/D) | (C3 B,) A,2 x2 | %51
w: wash me|through­ * ly,|wash me|through­ * ly,|wash me * *|through­ * ly|
 B,2 ^G,4 x2 | A,3 ^G, F,2 | D2 B,4 x2 | C3 B, A,^G, x2 | A,B, ^G,3 F, | F,6 x2 | z6 x2 | z6 x2 | %59
w: from my|wi- cked- ness,|from my|wi- cked- ness and|cleanse me from my|sin,|||
 z2 B,2 A,2 | (G,3 F,) E,2 | F,2 ^D,4 | E,3 F, G,E, x2 | (A,3 G, F,2) | (E,D,) C,3 D, | D,4 z2 x2 | %66
w: wash me|through­ * ly|from my|wi- cked- ness and|cleanse * *|me * from my|sin,|
 F,2 ^G,4 x2 | A,6- x2 | A,6- x2 | A,6- | A,6- x2 | A,6 | z2 B,2 C2 x2 | (D3 C) B,2 | C2 A,4 | %75
w: from my|sin,|||||wash me|through­ * ly|from my|
 B,2 C4 x2 |"^rall." D3 C (B,A,) x2 | (G,F,) (F,E,/F,/ E,)D, | D,6- | D,6 | z6 x2 | z6 | z6 | z6 | %84
w: wi- cked-|ness and cleanse *|me * from * * * my|sin.||||||
 z6 | z6 | z6 | z6 x2 |] %88
w: ||||
V:3
 z6 x2 | z6 | z6 x2 | z6 x2 | z6 | z6 | z6 | z2 (A,,B,,) C,2 | D,4 C,2 x2 | B,,4 A,,2 x2 | %10
w: |||||||Wash * me|through- ly|from my|
 G,,A,, B,,C, D,E, | F,2 D,4 | A,,2 D,2 C,2 | (D,2 A,,2 B,,2 x2 | G,,2) A,,4 | B,,3 C, D,2 | %16
w: wi- cked- ness and cleanse me|from my|sin, cleanse me|from * *|* my|sin, and cleanse|
 E,2 (C,B,,) C,2 | D,4 z2 | z6 | z6 | z6 | z2 F,2 (E,/F,/G,) | (F,3 E,) D,2 | G,2 A,4 | %24
w: me from * my|sin,||||wash me * *|through­ * ly,|from my|
 D,2 A,,2 B,,2 x2 | G,,2 A,,4 | D,4 B,,2 | G,,2 A,,4 x2 | D,4 z2 x2 | z6 | z2 E,2 F,2 x2 | %31
w: sin, wash me|through- ly|from my|wi- cked-|ness,||wash me|
 D,2 E,4 | A,,4 F,2 | D,2 E,4 | C,4 F,2 x2 | D,2 E,2 E,,2 | A,,6 x2 | z6 | z6 x2 | z6 | z6 | %41
w: through- ly|from my|wi- cked-|ness, cleanse|me from my|sin,|||||
 F,4 B,2 | F,4 B,,2 | z6 | z6 | E,4 A,2 | E,4 A,,2 | z6 | z2 ^E,2 F,2 | (C,2 F,2) B,,2 | z6 x2 | %51
w: wash me|through- ly,|||wash me|through- ly,||wash me|through­ * ly,||
 z6 x2 | z6 | z6 x2 | z4 D,2 x2 | B,,2 C,2 C,2 | F,2 A,2 B,2 x2 | A,3 ^G, F,^E, x2 | %58
w: |||cleanse|me from my|sin, wash me|through- ly from my|
 (F,^G, T^E,3) F, x2 | F,6 | z6 | z6 | E,4 D,2 x2 | (C,2 A,,2) D,2 | G,,2 A,,4 | D,4 z2 x2 | %66
w: wi­ * * cked-|ness,|||Wash me|through­ * ly|from my|sin,|
 z6 x2 | z6 x2 | z2 C,2 D,2 x2 | (C,3 B,,) A,,2 | z2 C,2 D,2 x2 | (C,3 B,,) A,,2 | z6 x2 | %73
w: ||wash me|through­ * ly,|wash me|through­ * ly||
 D,2 E,4 | C,2 A,,2 D,2 | (G,,2 A,,4) x2 |"^rall." (D,2 A,,2) (B,,2- x2 | B,,G,,) A,,4 | D,6- | %79
w: from my|wi- cked- ness|cleanse *|me * from|* * my|sin.|
 D,6 | z6 x2 | z6 | z6 | z6 | z6 | z6 | z6 | z6 x2 |] %88
w: |||||||||
V:4
 x8 | f3 e x2 | x8 | x8 | A4 x2 | [B,B]2 [CA]4 | A4 [A,DF]2 | ED CB, C2 | [F,A,D]4 [A,E]2 x2 | %9
 [B,D]4 [CF]2 x2 | [B,DG]4 A2 | [FA]2 x4 | [EAc]2 [Fd]2 [Ee]2 | x8 | x2 c4 | d6 | B2 cB c2 | %17
 [FAd]4 [EA]2 | [DB]4 [CF]2 | [B,DG]4 [A,D]2 | [A,F]2 [D^G]2 [Gd]2 | [Ac]2 A4 | d2 c2 [Bd]2 | %23
 x2 [Fd]2 [Ec]2 | x8 | [EB]2 A4 | A4 [DFB]2 | [EB]2 [CEA]4 x2 | [A,DF]3 E [F,A,D]2 x2 | %29
 [B,D]2 EF [B,E^G]2 | [CA]6 x2 | [FB]2 [CA]2 [B,^G]2 | A6 | F2 E4 | [Ec]3 [DB] [CA]2 x2 | %35
 z2 c2 d2 | [EAc]3 [DB] [EA]2 x2 | z2 f2 e/f/g | x8 | x2 [EB]4 | f6- | f6- | f6- | f6 | e6- | e6- | %46
 e6 | c6- | [^E^Gc]2 G2 A2 | ^E>^D [A,C]2 [B,=D^G]2 | [CA]4 [A,CF]2 x2 | [B,D^G]2 [^G,C^E]4 x2 | %52
 F6 | [DF]2 [B,E^G]4 x2 | [CEA]3 [B,^G] [A,F][^G,^E] x2 | [A,F][B,^G] ^E3 F | [A,CF]2 c2 d2 x2 | %57
 c3 BA^G x2 | [FA][^GB] [^EG]3 F x2 | [A,CF]2 F4 | G,6 | F6 | [B,EG]4 [EG]2 x2 | AB c2 d2- | %64
 d2 c4 | x8 | x8 | x8 | [CE]2 [Ec]2 [Fd]2 x2 | c3 B [FA]2 | z2 [Ec]2 [Fd]2 x2 | c3 B [FA]2 | %72
 [B,EG]4 [CE]2 x2 | F2 ^G4 | A6 | [B,G]2 [CE]4 x2 | [DF]3 [CE] [B,D]2- x2 | [B,D]E DC/D/ CD | %78
 [F,A,D]2 x4 | f3 e x2 | x8 | f3 e x2 | x2 c4 | d3 c B2 | [EA]2 G4 | F3 E D2 | E/F/G TC3 D | %87
 [F,A,D]6 x2 |] %88
V:5
 x2 z2 [Af]2 [Bg]2 | A2 c2 [FBd]2 | x2 [EBe]2 [EAc]4 | x2 [FAd]4 [EA]2 | [DF]3 [CE] [B,DF]2 | E6 | %6
 D3 E x2 | [G,B,]2 [E,A,]4 | x8 | x8 | x4 DE | x2 [^Gd]4 | x2 A4 | x2 [Af]3 [Ge] [FBd]2 | %14
 [GBe]2 F2 E2 | D3 E F2 | GF [EA]4 | x6 | x6 | x6 | x6 | x6 | x6 | [Be]2 A4 | x2 [Fd]6 | x2 F2 G2 | %26
 F3 E x2 | x8 | x8 | x2 C2 x2 | x8 | x2 E4 | [CE]3 [B,D] [A,C]2 | B,6 | x8 | x2 EF ^G2 | x8 | %37
 x2 A4 | x2 [Af]3 [Ge] [FBd]2 | [Gc]2 x4 | [^Ac]4 [Bd]2 | [^Ac]4 [Bd]2 | [^Ac]4 [Bd]2 | %43
 [^Ac]4 [Bd]2 | [^GB]4 [Ac]2 | [^GB]4 [Ac]2 | [^GB]4 [Ac]2 | [^E^G]4 [FA]2 | x2 C4 | C2 x4 | x8 | %51
 x8 | [A,C]3 [^G,B,] [F,A,]2 | x8 | x8 | D2 [^G,C]4 | x8 | x8 | x8 | x2 B,2 ^D2 | E2 ^D2 E2- | %61
 E2 ^D4 | x8 | E4 [FA]2 | E6 | x2 [Fd]6- | x2 [FB]2 [^Gd]4 | x2 [Ac]4 [DF]2 | x8 | E4 x2 | x8 | %71
 E4 x2 | x8 | D3 C B,2 | [CE]2 [DF]4 | x8 | x8 | x2 [E,A,]4 | x2 [Af]2 [Bg]2 | A4 [Bd]2 | %80
 x2 z2 [Af]2 [Bg]2 | A2 c2 [FBd]2 | [Be]2 E2 G2 | A2 F4 | x2 A,2 C2 | D2 C2 B,2 | B,2 A,2 G,2 | %87
 x8 |] %88
V:6
 x2 D,6- | D,2 A,2 B,2 | x2 G,2 A,2 A,,2 | x2 D,4 C,2 | D,2 A,,2 B,,2 | G,,2 A,,2 E,,2 | %6
 F,,2 C,2 D,2 | E,2 A,,4 | x2 D,4 C,2 | x2 B,,4 A,,2 | G,,4 F,,2 | D,2 B,,4 | A,,2 D,2 C,2 | %13
 x2 D,2 A,,2 B,,2 | G,,2 A,,4 | B,,3 C, D,2 | E,,2 A,,4 | D,4 C,2 | B,,4 A,,2 | G,,4 F,,2 | %20
 D,2 B,,4 | A,,2 D,2 C,2 | D,2 A,,2 B,,2 | G,,2 A,,4 | x2 D,2 A,,2 B,,2 | G,,2 A,,4 | D,4 B,,2 | %27
 x2 G,,2 A,,4 | x2 D,4 D,2 | B,,2 E,4 | x2 A,2 E,2 F,2 | D,2 E,4 | A,,4 F,2 | D,2 [E,^G,]4 | %34
 x2 C,4 F,2 | D,2 E,2 E,,2 | x2 A,,2 A,2 C,2 | D,4 C,2 | x2 D,2 A,2 B,2 | E,2 G,4 | F,4 B,,2 | %41
 F,4 B,2 | F,4 B,,2 | F,,4 B,,2 | E,4 A,,2 | E,4 A,2 | E,4 A,,2 | C,4 F,2 | C,2 ^E,2 F,2 | %49
 C,2 F,2 B,,2 | x2 F,4 F,,2 | x2 B,,2 C,4 | A,,4 D,2 | x2 B,,2 E,4 | x2 A,,4 D,2 | B,,2 C,2 C,,2 | %56
 x2 F,,2 F,2 B,,2 | x2 F,,2 C,2 D,2 | x2 B,,2 C,2 C,,2 | F,,2 ^D,2 B,,2 | E,2 B,,2 =C,2 | %61
 A,,2 B,,4 | x2 E,4 D,2 | C,2 A,,2 D,2 | G,,2 A,,4 | x2 D,4 C,2 | x2 D,2 B,,4 | x2 A,,6- | %68
 x2 A,,6- | A,,6- | x2 A,,6- | A,,4 D,2 | x2 E,4 A,2 | D,2 E,4 | A,,2 D,4 | x2 G,,2 A,,4 | %76
 x2"^rall." D,2 A,,2 B,,2- | B,,G,, A,,4 |"^a tempo" D,,6 | z2 F,2 G,2 | x2 F,>E, D,4- | %81
 D,2 A,2 B,2 | G,2 A,2 E,2 | F,2 B,,2 D,2 | C,4 A,,2 | D,2 A,,2 B,,2 | G,,2 A,,4 | x2 D,,6 |] %88

